X:1935
T:Gammel Hamborger
M:2/4
O:Denmark
Z:Richard Robinson 
%%TUNEURL: http://www.leeds.ac.uk/music/Info/RRTuneBk/gettune/00000919.html
%%ID:00000919
K:G
B2B2 {B}c3B | B2G2 GDGB | \
A2A2 FDFA | G2BG D4| \
B2B2 {B}c3B | B2G2 GBGB | \
A2A2 FDFA | (G4 G3)D ||
d2d2 {d}e3d | d2B2 BDGB | \
A3A FDFA |G2B2 {B}d4| \
d2d2 {d}e3d | d2B2 BDGB | \
A2A2 FDFA | G2B2 G2z2 |]
